X: 1
T:Stanla Markit
M:6/8
L:1/8
C:Tommy Armstrong
K:G
B2 A| G2FG2E|D3 C2 C| B,2 A, B,2 C|(D3D3)|
E2 E G2 G| D2 D G3|A2 A DEF|G3 G2 A|
B2 B B2 B|B2 B2 B2 B2| c2 B2 A2 G|F2 G A2 D|
G2 G G2 G|G G2 G2 G| A2 A A2 G|F2 E D2 D|
G2 G2 G2 G| G2 GGG| A2A A2 G|F2 E2 DDD|
E2 E G2G| D2D G2G|A2A DEF|G3 G2 z z ||
B2 A G2 F|G2 E D3| C2 C B,2 A,| B,2 C D3|
E2 E G2 G| D2 D G3| A2 A DEF| G3 G2 z z|
